resources/svg/npm-o.svg

<svg xmlns="http://www.w3.org/2000/svg" viewBox="0 0 15 15" fill="none"><path d="M4.5 10.5v2h2v-2h8v-6H.5v6h4zm0 0v-6m4 0v6M6.5 6v3m-4-3v4.5m8-4.5v4.5m2-4.5v4.5" stroke="currentColor"/></svg>

<svg xmlns="http://www.w3.org/2000/svg" viewBox="0 0 15 15" fill="none"><path d="M4.5 10.5V12.5H6.5V10.5H14.5V4.5H0.5V10.5H4.5ZM4.5 10.5V4.5M8.5 4.5V10.5M6.5 6V9M2.5 6V10.5M10.5 6V10.5M12.5 6V10.5" stroke="black"/></svg>
